src/assets/outline/Slack.svg

<svg width="24" height="24" viewBox="0 0 24 24"  xmlns="http://www.w3.org/2000/svg">
<path d="M14.5402 11.3698C13.1002 11.3698 11.9302 10.1998 11.9302 8.75977V4.11975C11.9302 2.67975 13.1002 1.50977 14.5402 1.50977C15.9802 1.50977 17.1502 2.67975 17.1502 4.11975V8.75977C17.1502 10.1998 15.9802 11.3698 14.5402 11.3698ZM14.5402 3.00977C13.9302 3.00977 13.4302 3.50975 13.4302 4.11975V8.75977C13.4302 9.36977 13.9302 9.86975 14.5402 9.86975C15.1502 9.86975 15.6502 9.36977 15.6502 8.75977V4.11975C15.6502 3.50975 15.1502 3.00977 14.5402 3.00977Z" />
<path d="M20.1799 11.3705H18.6099C18.1999 11.3705 17.8599 11.0305 17.8599 10.6205V9.05045C17.8599 7.77045 18.8999 6.73047 20.1799 6.73047C21.4599 6.73047 22.4999 7.77045 22.4999 9.05045C22.4999 10.3304 21.4599 11.3705 20.1799 11.3705ZM19.3699 9.87045H20.1899C20.6399 9.87045 21.0099 9.50045 21.0099 9.05045C21.0099 8.60045 20.6399 8.23047 20.1899 8.23047C19.7399 8.23047 19.3699 8.60045 19.3699 9.05045V9.87045Z" />
<path d="M8.5 11.8294H3.86C2.42 11.8294 1.25 10.6594 1.25 9.21939C1.25 7.77939 2.42 6.60938 3.86 6.60938H8.5C9.94 6.60938 11.11 7.77939 11.11 9.21939C11.11 10.6594 9.94 11.8294 8.5 11.8294ZM3.86 8.11938C3.25 8.11938 2.75 8.6194 2.75 9.2294C2.75 9.8394 3.25 10.3394 3.86 10.3394H8.5C9.11 10.3394 9.61 9.8394 9.61 9.2294C9.61 8.6194 9.11 8.11938 8.5 8.11938H3.86Z" />
<path d="M10.3602 5.88025H8.79021C7.51021 5.88025 6.47021 4.84024 6.47021 3.56024C6.47021 2.28024 7.51021 1.24023 8.79021 1.24023C10.0702 1.24023 11.1102 2.28024 11.1102 3.56024V5.13025C11.1102 5.55025 10.7702 5.88025 10.3602 5.88025ZM8.79021 2.75024C8.34021 2.75024 7.97021 3.12025 7.97021 3.57025C7.97021 4.02025 8.34021 4.39026 8.79021 4.39026H9.61021V3.57025C9.61021 3.12025 9.24021 2.75024 8.79021 2.75024Z" />
<path d="M9.42981 22.5201C7.98981 22.5201 6.81982 21.3502 6.81982 19.9102V15.2701C6.81982 13.8301 7.98981 12.6602 9.42981 12.6602C10.8698 12.6602 12.0398 13.8301 12.0398 15.2701V19.9102C12.0398 21.3502 10.8698 22.5201 9.42981 22.5201ZM9.42981 14.1602C8.81981 14.1602 8.31982 14.6601 8.31982 15.2701V19.9102C8.31982 20.5202 8.81981 21.0201 9.42981 21.0201C10.0398 21.0201 10.5398 20.5202 10.5398 19.9102V15.2701C10.5398 14.6501 10.0398 14.1602 9.42981 14.1602Z" />
<path d="M3.79021 17.2904C2.51021 17.2904 1.47021 16.2504 1.47021 14.9704C1.47021 13.6904 2.51021 12.6504 3.79021 12.6504H5.36021C5.77021 12.6504 6.11021 12.9904 6.11021 13.4004V14.9704C6.11021 16.2504 5.07021 17.2904 3.79021 17.2904ZM3.79021 14.1604C3.34021 14.1604 2.97021 14.5304 2.97021 14.9804C2.97021 15.4304 3.34021 15.8004 3.79021 15.8004C4.24021 15.8004 4.61021 15.4304 4.61021 14.9804V14.1604H3.79021Z" />
<path d="M20.1099 17.4095H15.4699C14.0299 17.4095 12.8599 16.2394 12.8599 14.7994C12.8599 13.3594 14.0299 12.1895 15.4699 12.1895H20.1099C21.5499 12.1895 22.7199 13.3594 22.7199 14.7994C22.7199 16.2394 21.5499 17.4095 20.1099 17.4095ZM15.4699 13.6895C14.8599 13.6895 14.3599 14.1894 14.3599 14.7994C14.3599 15.4094 14.8599 15.9095 15.4699 15.9095H20.1099C20.7199 15.9095 21.2199 15.4094 21.2199 14.7994C21.2199 14.1894 20.7199 13.6895 20.1099 13.6895H15.4699Z" />
<path d="M15.1799 22.7299C13.8999 22.7299 12.8599 21.6899 12.8599 20.4099V18.8398C12.8599 18.4298 13.1999 18.0898 13.6099 18.0898H15.1799C16.4599 18.0898 17.4999 19.1299 17.4999 20.4099C17.4999 21.6899 16.4499 22.7299 15.1799 22.7299ZM14.3599 19.5898V20.4099C14.3599 20.8599 14.7299 21.2299 15.1799 21.2299C15.6299 21.2299 15.9999 20.8599 15.9999 20.4099C15.9999 19.9599 15.6299 19.5898 15.1799 19.5898H14.3599Z" />
</svg>

<?xml version="1.0" encoding="UTF-8"?>
<svg width="24" height="24" viewBox="0 0 24 24" xmlns="http://www.w3.org/2000/svg">
 <path d="m14.54 11.37c-1.44 0-2.61-1.17-2.61-2.61v-4.64c0-1.44 1.17-2.61 2.61-2.61s2.61 1.17 2.61 2.61v4.64c0 1.44-1.17 2.61-2.61 2.61zm0-8.36c-0.61 0-1.11 0.49998-1.11 1.11v4.64c0 0.61 0.5 1.11 1.11 1.11s1.11-0.49998 1.11-1.11v-4.64c0-0.61-0.5-1.11-1.11-1.11z"/>
 <path d="m20.18 11.37h-1.57c-0.41 0-0.75-0.34-0.75-0.75v-1.57c0-1.28 1.04-2.32 2.32-2.32s2.32 1.04 2.32 2.32c0 1.28-1.04 2.32-2.32 2.32zm-0.81-1.5h0.82c0.45 0 0.82-0.37 0.82-0.82s-0.37-0.81998-0.82-0.81998-0.82 0.36998-0.82 0.81998v0.82z"/>
 <path d="m8.5 11.829h-4.64c-1.44 0-2.61-1.17-2.61-2.61 0-1.44 1.17-2.61 2.61-2.61h4.64c1.44 0 2.61 1.17 2.61 2.61 0 1.44-1.17 2.61-2.61 2.61zm-4.64-3.71c-0.61 0-1.11 0.50002-1.11 1.11s0.5 1.11 1.11 1.11h4.64c0.61 0 1.11-0.5 1.11-1.11s-0.5-1.11-1.11-1.11h-4.64z"/>
 <path d="m10.36 5.8802h-1.57c-1.28 0-2.32-1.04-2.32-2.32s1.04-2.32 2.32-2.32c1.28 0 2.32 1.04 2.32 2.32v1.57c0 0.42-0.34 0.75-0.75 0.75zm-1.57-3.13c-0.45 0-0.82 0.37001-0.82 0.82001s0.37 0.82001 0.82 0.82001h0.82v-0.82001c0-0.45-0.37-0.82001-0.82-0.82001z"/>
 <path d="m9.4298 22.52c-1.44 0-2.61-1.1699-2.61-2.6099v-4.6401c0-1.44 1.17-2.6099 2.61-2.6099 1.44 0 2.61 1.1699 2.61 2.6099v4.6401c0 1.44-1.17 2.6099-2.61 2.6099zm0-8.3599c-0.61 0-1.11 0.4999-1.11 1.1099v4.6401c0 0.61 0.49999 1.1099 1.11 1.1099 0.60999 0 1.11-0.4999 1.11-1.1099v-4.6401c0-0.62-0.5-1.1099-1.11-1.1099z"/>
 <path d="m3.7902 17.29c-1.28 0-2.32-1.04-2.32-2.32s1.04-2.32 2.32-2.32h1.57c0.41 0 0.75 0.34 0.75 0.75v1.57c0 1.28-1.04 2.32-2.32 2.32zm0-3.13c-0.45 0-0.82 0.37-0.82 0.82s0.37 0.82 0.82 0.82 0.82-0.37 0.82-0.82v-0.82h-0.82z"/>
 <path d="m20.11 17.41h-4.64c-1.44 0-2.61-1.1701-2.61-2.6101s1.17-2.6099 2.61-2.6099h4.64c1.44 0 2.61 1.1699 2.61 2.6099s-1.17 2.6101-2.61 2.6101zm-4.64-3.72c-0.61 0-1.11 0.4999-1.11 1.1099s0.5 1.1101 1.11 1.1101h4.64c0.61 0 1.11-0.5001 1.11-1.1101s-0.5-1.1099-1.11-1.1099h-4.64z"/>
 <path d="m15.18 22.73c-1.28 0-2.32-1.04-2.32-2.32v-1.5701c0-0.41 0.34-0.75 0.75-0.75h1.57c1.28 0 2.32 1.0401 2.32 2.3201s-1.05 2.32-2.32 2.32zm-0.82-3.1401v0.8201c0 0.45 0.37 0.82 0.82 0.82s0.82-0.37 0.82-0.82-0.37-0.8201-0.82-0.8201h-0.82z"/>
</svg>
